img/sidebar/portfolio-active.svg

<?xml version="1.0" encoding="UTF-8"?>
<svg width="36px" height="36px" viewBox="0 0 36 36" version="1.1" xmlns="http://www.w3.org/2000/svg" xmlns:xlink="http://www.w3.org/1999/xlink">
    <title>D94B8C94-98C1-4A3F-B988-83D66A354381@2.00x</title>
    <g id="homepage" stroke="none" stroke-width="1" fill="none" fill-rule="evenodd">
        <g id="Nav-Side" transform="translate(-332.000000, -332.000000)">
            <g id="Group-38" transform="translate(326.000000, 332.000000)">
                <g id="Group-2" transform="translate(6.000000, 0.000000)">
                    <rect id="Rectangle" fill="#000000" x="5.4" y="0.9" width="25.2" height="24.3"></rect>
                    <rect id="Rectangle" fill="#FFFFFF" x="28.8" y="13.5" width="2.7" height="4.5"></rect>
                    <polygon id="Path" fill="#FFFFFF" points="27.8709677 15.0967742 16.2580645 15.0967742 16.2580645 13.9354839 27.8709677 13.9354839"></polygon>
                    <path d="M15.0967742,17.0605161 L12.9733548,15.9985161 C12.8502581,15.9369677 12.7741935,15.813871 12.7741935,15.6774194 C12.7741935,15.5409677 12.8502581,15.417871 12.9727742,15.3563226 L15.0967742,14.2943226 L15.0967742,17.0605161 Z" id="Path" fill="#FFFFFF"></path>
                    <polygon id="Path" fill="#FFFFFF" points="16.2580645 16.2580645 27.8709677 16.2580645 27.8709677 17.4193548 16.2580645 17.4193548"></polygon>
                    <g id="monitor" fill-rule="nonzero">
                        <path d="M12.1935484,15.6774194 C12.1935484,15.3214839 12.3944516,14.9963226 12.7126452,14.8372258 L15.6774194,13.3548387 L18.7043226,13.3548387 C19.358129,12.3526452 19.7419355,11.1570968 19.7419355,9.87096774 C19.7419355,6.34354839 16.8822581,3.48387097 13.3548387,3.48387097 C9.82741935,3.48387097 6.96774194,6.34354839 6.96774194,9.87096774 C6.96774194,13.0494194 9.29206452,15.6785806 12.3329032,16.1686452 C12.2434839,16.0234839 12.1935484,15.8545161 12.1935484,15.6774194 Z" id="Path" fill="#FFFFFF"></path>
                        <path d="M33.0967742,8.12903226 L31.3548387,8.12903226 L31.3548387,0 L4.64516129,0 L4.64516129,8.12903226 L2.90322581,8.12903226 C1.3023871,8.12903226 0,9.43141935 0,11.0322581 L0,29.6129032 C0,31.2137419 1.3023871,32.516129 2.90322581,32.516129 L11.0322581,32.516129 L11.0322581,34.8387097 L8.70967742,34.8387097 L8.70967742,36 L27.2903226,36 L27.2903226,34.8387097 L24.9677419,34.8387097 L24.9677419,32.516129 L33.0967742,32.516129 C34.6976129,32.516129 36,31.2137419 36,29.6129032 L36,11.0322581 C36,9.43141935 34.6976129,8.12903226 33.0967742,8.12903226 Z M30.7741935,17.4193548 L29.0322581,17.4193548 L29.0322581,13.9354839 L30.7741935,13.9354839 C31.7345806,13.9354839 32.516129,14.7170323 32.516129,15.6774194 C32.516129,16.6378065 31.7345806,17.4193548 30.7741935,17.4193548 Z M27.8709677,15.0967742 L16.2580645,15.0967742 L16.2580645,13.9354839 L27.8709677,13.9354839 L27.8709677,15.0967742 Z M15.0967742,17.0605161 L12.9733548,15.9985161 C12.8502581,15.9369677 12.7741935,15.813871 12.7741935,15.6774194 C12.7741935,15.5409677 12.8502581,15.417871 12.9727742,15.3563226 L15.0967742,14.2943226 L15.0967742,17.0605161 Z M16.2580645,16.2580645 L27.8709677,16.2580645 L27.8709677,17.4193548 L16.2580645,17.4193548 L16.2580645,16.2580645 Z M5.80645161,1.16129032 L30.1935484,1.16129032 L30.1935484,12.7741935 L15.5403871,12.7741935 L12.4530968,14.3175484 C11.9351613,14.5770968 11.6129032,15.0985161 11.6129032,15.6774194 C11.6129032,16.2563226 11.9351613,16.7777419 12.4530968,17.0372903 L15.5403871,18.5806452 L30.1935484,18.5806452 L30.1935484,24.3870968 L5.80645161,24.3870968 L5.80645161,1.16129032 Z M23.8064516,34.8387097 L12.1935484,34.8387097 L12.1935484,32.516129 L23.8064516,32.516129 L23.8064516,34.8387097 Z M33.0967742,31.3548387 L2.90322581,31.3548387 C1.94283871,31.3548387 1.16129032,30.5732903 1.16129032,29.6129032 L1.16129032,29.0322581 L32.516129,29.0322581 L32.516129,27.8709677 L1.16129032,27.8709677 L1.16129032,11.0322581 C1.16129032,10.071871 1.94283871,9.29032258 2.90322581,9.29032258 L4.64516129,9.29032258 L4.64516129,25.5483871 L31.3548387,25.5483871 L31.3548387,18.522 C32.678129,18.252 33.6774194,17.0796774 33.6774194,15.6774194 C33.6774194,14.2751613 32.678129,13.1028387 31.3548387,12.8328387 L31.3548387,9.29032258 L33.0967742,9.29032258 C34.0571613,9.29032258 34.8387097,10.071871 34.8387097,11.0322581 L34.8387097,27.8709677 L33.6774194,27.8709677 L33.6774194,29.0322581 L34.8387097,29.0322581 L34.8387097,29.6129032 C34.8387097,30.5732903 34.0571613,31.3548387 33.0967742,31.3548387 Z" id="Shape" fill="#000000"></path>
                        <polygon id="Path" fill="#000000" points="19.6490323 3.21851613 18.6735484 2.58793548 12.6243871 11.9363226 10.8 10.5677419 10.1032258 11.4967742 12.924 13.6120645"></polygon>
                        <path d="M9.29032258,19.7419355 C8.32993548,19.7419355 7.5483871,20.5234839 7.5483871,21.483871 C7.5483871,22.4442581 8.32993548,23.2258065 9.29032258,23.2258065 C10.2507097,23.2258065 11.0322581,22.4442581 11.0322581,21.483871 C11.0322581,20.5234839 10.2507097,19.7419355 9.29032258,19.7419355 Z M9.29032258,22.0645161 C8.96980645,22.0645161 8.70967742,21.8043871 8.70967742,21.483871 C8.70967742,21.1633548 8.96980645,20.9032258 9.29032258,20.9032258 C9.61083871,20.9032258 9.87096774,21.1633548 9.87096774,21.483871 C9.87096774,21.8043871 9.61083871,22.0645161 9.29032258,22.0645161 Z" id="Shape" fill="#FFFFFF"></path>
                        <path d="M15.0967742,19.7419355 C14.1363871,19.7419355 13.3548387,20.5234839 13.3548387,21.483871 C13.3548387,22.4442581 14.1363871,23.2258065 15.0967742,23.2258065 C16.0571613,23.2258065 16.8387097,22.4442581 16.8387097,21.483871 C16.8387097,20.5234839 16.0571613,19.7419355 15.0967742,19.7419355 Z M15.0967742,22.0645161 C14.7762581,22.0645161 14.516129,21.8043871 14.516129,21.483871 C14.516129,21.1633548 14.7762581,20.9032258 15.0967742,20.9032258 C15.4172903,20.9032258 15.6774194,21.1633548 15.6774194,21.483871 C15.6774194,21.8043871 15.4172903,22.0645161 15.0967742,22.0645161 Z" id="Shape" fill="#FFFFFF"></path>
                        <path d="M20.9032258,19.7419355 C19.9428387,19.7419355 19.1612903,20.5234839 19.1612903,21.483871 C19.1612903,22.4442581 19.9428387,23.2258065 20.9032258,23.2258065 C21.8636129,23.2258065 22.6451613,22.4442581 22.6451613,21.483871 C22.6451613,20.5234839 21.8636129,19.7419355 20.9032258,19.7419355 Z M20.9032258,22.0645161 C20.5827097,22.0645161 20.3225806,21.8043871 20.3225806,21.483871 C20.3225806,21.1633548 20.5827097,20.9032258 20.9032258,20.9032258 C21.2237419,20.9032258 21.483871,21.1633548 21.483871,21.483871 C21.483871,21.8043871 21.2237419,22.0645161 20.9032258,22.0645161 Z" id="Shape" fill="#FFFFFF"></path>
                        <path d="M26.7096774,19.7419355 C25.7492903,19.7419355 24.9677419,20.5234839 24.9677419,21.483871 C24.9677419,22.4442581 25.7492903,23.2258065 26.7096774,23.2258065 C27.6700645,23.2258065 28.4516129,22.4442581 28.4516129,21.483871 C28.4516129,20.5234839 27.6700645,19.7419355 26.7096774,19.7419355 Z M26.7096774,22.0645161 C26.3891613,22.0645161 26.1290323,21.8043871 26.1290323,21.483871 C26.1290323,21.1633548 26.3891613,20.9032258 26.7096774,20.9032258 C27.0301935,20.9032258 27.2903226,21.1633548 27.2903226,21.483871 C27.2903226,21.8043871 27.0301935,22.0645161 26.7096774,22.0645161 Z" id="Shape" fill="#FFFFFF"></path>
                    </g>
                </g>
            </g>
        </g>
    </g>
</svg>

<svg width="36" height="36" xmlns="http://www.w3.org/2000/svg"><g fill="none" fill-rule="evenodd"><path fill="#000" d="M5.4.9h25.2v24.3H5.4z"/><path fill="#FFF" d="M28.8 13.5h2.7V18h-2.7zM27.871 15.097H16.258v-1.162h11.613zM15.097 17.06L12.973 16a.357.357 0 010-.643l2.124-1.062v2.767zM16.258 16.258h11.613v1.161H16.258z"/><g fill-rule="nonzero"><path d="M12.194 15.677c0-.356.2-.68.519-.84l2.964-1.482h3.027a6.355 6.355 0 001.038-3.484 6.387 6.387 0 00-12.774 0 6.383 6.383 0 005.365 6.298.935.935 0 01-.14-.492z" fill="#FFF"/><path d="M33.097 8.129h-1.742V0H4.645v8.129H2.903A2.907 2.907 0 000 11.032v18.58c0 1.602 1.302 2.904 2.903 2.904h8.13v2.323H8.71V36h18.58v-1.161h-2.322v-2.323h8.129c1.6 0 2.903-1.302 2.903-2.903v-18.58c0-1.602-1.302-2.904-2.903-2.904zm-2.323 9.29h-1.742v-3.484h1.742c.96 0 1.742.782 1.742 1.742s-.781 1.742-1.742 1.742zm-2.903-2.322H16.258v-1.162h11.613v1.162zM15.097 17.06l-2.124-1.062a.357.357 0 010-.643l2.124-1.062v2.767zm1.161-.803h11.613v1.161H16.258v-1.16zM5.806 1.161h24.388v11.613H15.54l-3.087 1.544c-.518.26-.84.78-.84 1.36 0 .578.322 1.1.84 1.36l3.087 1.543h14.654v5.806H5.806V1.161zm18 33.678H12.194v-2.323h11.612v2.323zm9.29-3.484H2.904c-.96 0-1.742-.782-1.742-1.742v-.58h31.355V27.87H1.161V11.032c0-.96.782-1.742 1.742-1.742h1.742v16.258h26.71v-7.026a2.908 2.908 0 002.322-2.845c0-1.402-.999-2.574-2.322-2.844V9.29h1.742c.96 0 1.742.782 1.742 1.742v16.839h-1.162v1.161h1.162v.58c0 .961-.782 1.743-1.742 1.743z" fill="#000"/><path fill="#000" d="M19.649 3.219l-.975-.631-6.05 9.348-1.824-1.368-.697.929 2.821 2.115z"/><path d="M9.29 19.742c-.96 0-1.742.781-1.742 1.742 0 .96.782 1.742 1.742 1.742s1.742-.782 1.742-1.742-.781-1.742-1.742-1.742zm0 2.323a.58.58 0 110-1.162.58.58 0 010 1.162zM15.097 19.742c-.96 0-1.742.781-1.742 1.742 0 .96.781 1.742 1.742 1.742.96 0 1.742-.782 1.742-1.742s-.782-1.742-1.742-1.742zm0 2.323a.58.58 0 110-1.162.58.58 0 010 1.162zM20.903 19.742c-.96 0-1.742.781-1.742 1.742 0 .96.782 1.742 1.742 1.742s1.742-.782 1.742-1.742-.781-1.742-1.742-1.742zm0 2.323a.58.58 0 110-1.162.58.58 0 010 1.162zM26.71 19.742c-.96 0-1.742.781-1.742 1.742 0 .96.781 1.742 1.742 1.742.96 0 1.742-.782 1.742-1.742s-.782-1.742-1.742-1.742zm0 2.323a.58.58 0 110-1.162.58.58 0 010 1.162z" fill="#FFF"/></g></g></svg>
